!!!ONR: No. 34
!! From Harold Courlander, "Haiti Singing"
!! Chapel Hill: University of North Carolina Press, 1939
!! Copyright University of North Carolina Press
!!!ENC: D. Huron
**kern
*clefG2
*k[]
*M2/4
=1-
4r
8r
8c
=
4e
8a
8e
=
2g
=
8g
8a
8.cc
16a
=
8g
16e
16e
8c
8d
=
8e
8c
8d
8c
=
4G
8A
[8d
=
8d]
8c
8A
8c
=
16c
16e
16e
16d
4c
=
8A
8A
4c
=
8e
8d
4c
=
([2g
=
4.g]
8e)
=
4c
16d
16e
16d
(16c
-
8A)
8A
4c
=
8e
8a
8e
[8g
=
2g]
=
8A
8A
8.d
16c
=
4A
4A
=
8d
8d
8c
8A
=
2A
=
2c
==
*-
